humanity-icon-theme/Humanity/mimes/16/application-msword.svg

<?xml version="1.0" encoding="UTF-8" standalone="no"?>
<!-- Created with Inkscape (http://www.inkscape.org/) -->
<svg
   xmlns:svg="http://www.w3.org/2000/svg"
   xmlns="http://www.w3.org/2000/svg"
   xmlns:xlink="http://www.w3.org/1999/xlink"
   version="1.0"
   width="16"
   height="16"
   id="svg3518">
  <defs
     id="defs3520">
    <linearGradient
       id="linearGradient2508">
      <stop
         id="stop2510"
         style="stop-color:#2e4a5a;stop-opacity:1"
         offset="0" />
      <stop
         id="stop2512"
         style="stop-color:#6e8796;stop-opacity:1"
         offset="1" />
    </linearGradient>
    <linearGradient
       x1="-51.786404"
       y1="53.623615"
       x2="-51.786404"
       y2="2.9062471"
       id="linearGradient3474"
       xlink:href="#linearGradient2508"
       gradientUnits="userSpaceOnUse"
       gradientTransform="matrix(0.2768636,0,0,0.3050233,19.641,-0.68561)" />
    <linearGradient
       id="linearGradient2867-449-88-871-390-598-476-591-434-148-895-534-212-357-729">
      <stop
         id="stop8022"
         style="stop-color:#85c2cf;stop-opacity:1"
         offset="0" />
      <stop
         id="stop8024"
         style="stop-color:#74a4be;stop-opacity:1"
         offset="0.26238" />
      <stop
         id="stop8026"
         style="stop-color:#5177a0;stop-opacity:1"
         offset="0.704952" />
      <stop
         id="stop8028"
         style="stop-color:#2c5889;stop-opacity:1"
         offset="1" />
    </linearGradient>
    <radialGradient
       cx="14.239056"
       cy="11.49049"
       r="18.000002"
       fx="14.239056"
       fy="11.49049"
       id="radialGradient3471"
       xlink:href="#linearGradient2867-449-88-871-390-598-476-591-434-148-895-534-212-357-729"
       gradientUnits="userSpaceOnUse"
       gradientTransform="matrix(0,1.0834925,-1.816687,0,24.708827,-13.135239)" />
    <linearGradient
       id="linearGradient3211">
      <stop
         id="stop3213"
         style="stop-color:#ffffff;stop-opacity:1"
         offset="0" />
      <stop
         id="stop3215"
         style="stop-color:#ffffff;stop-opacity:0"
         offset="1" />
    </linearGradient>
    <linearGradient
       x1="24"
       y1="1.9999999"
       x2="24"
       y2="46.01725"
       id="linearGradient3468"
       xlink:href="#linearGradient3211"
       gradientUnits="userSpaceOnUse"
       gradientTransform="matrix(0.2727267,0,0,0.302325,1.4545607,0.7441991)" />
    <linearGradient
       id="linearGradient8265-821-176-38-919-66-249">
      <stop
         id="stop2687"
         style="stop-color:#ffffff;stop-opacity:1"
         offset="0" />
      <stop
         id="stop2689"
         style="stop-color:#ffffff;stop-opacity:0"
         offset="1" />
    </linearGradient>
    <linearGradient
       x1="16.626165"
       y1="15.298182"
       x2="20.054544"
       y2="24.627615"
       id="linearGradient3461"
       xlink:href="#linearGradient8265-821-176-38-919-66-249"
       gradientUnits="userSpaceOnUse"
       gradientTransform="matrix(0.2394557,0,0,0.4823445,1.7530613,-1.8789938)" />
    <linearGradient
       id="linearGradient4000">
      <stop
         id="stop4002"
         style="stop-color:#000000;stop-opacity:1"
         offset="0" />
      <stop
         id="stop4004"
         style="stop-color:#000000;stop-opacity:0"
         offset="1" />
    </linearGradient>
    <linearGradient
       x1="75.854454"
       y1="28"
       x2="91"
       y2="12"
       id="linearGradient3516"
       xlink:href="#linearGradient4000"
       gradientUnits="userSpaceOnUse"
       gradientTransform="matrix(0.3843887,0,0,0.2958945,-20.854335,2.5013176)"
       spreadMethod="reflect" />
    <linearGradient
       id="linearGradient5293">
      <stop
         id="stop5295"
         style="stop-color:#ffffff;stop-opacity:1"
         offset="0" />
      <stop
         id="stop5297"
         style="stop-color:#ffffff;stop-opacity:0"
         offset="1" />
    </linearGradient>
    <linearGradient
       x1="75.854454"
       y1="28"
       x2="91"
       y2="12"
       id="linearGradient3513"
       xlink:href="#linearGradient5293"
       gradientUnits="userSpaceOnUse"
       gradientTransform="matrix(0.3840831,0,0,0.2965013,-20.798453,2.0701722)"
       spreadMethod="reflect" />
    <linearGradient
       id="linearGradient3759">
      <stop
         id="stop3761"
         style="stop-color:#000000;stop-opacity:1"
         offset="0" />
      <stop
         id="stop3763"
         style="stop-color:#000000;stop-opacity:0"
         offset="1" />
    </linearGradient>
    <linearGradient
       x1="26.188938"
       y1="30.4547"
       x2="44.250275"
       y2="16.134642"
       id="linearGradient3510"
       xlink:href="#linearGradient3759"
       gradientUnits="userSpaceOnUse"
       gradientTransform="matrix(0.3237869,0,0,0.3219205,-0.2624771,0.8824936)"
       spreadMethod="reflect" />
    <linearGradient
       id="linearGradient2508-790">
      <stop
         id="stop3686"
         style="stop-color:#294351;stop-opacity:1"
         offset="0" />
      <stop
         id="stop3688"
         style="stop-color:#637a87;stop-opacity:1"
         offset="1" />
    </linearGradient>
    <linearGradient
       x1="24.239185"
       y1="44.110138"
       x2="24.239185"
       y2="0.19081046"
       id="linearGradient3477"
       xlink:href="#linearGradient2508-790"
       gradientUnits="userSpaceOnUse"
       gradientTransform="matrix(0.3536188,0,0,0.3669135,-1.07143,-0.7152535)" />
    <linearGradient
       id="linearGradient8589">
      <stop
         id="stop8591"
         style="stop-color:#fefefe;stop-opacity:1"
         offset="0" />
      <stop
         id="stop8593"
         style="stop-color:#cbcbcb;stop-opacity:1"
         offset="1" />
    </linearGradient>
    <linearGradient
       x1="32.892288"
       y1="8.0590115"
       x2="36.358372"
       y2="5.4565363"
       id="linearGradient3464"
       xlink:href="#linearGradient8589"
       gradientUnits="userSpaceOnUse"
       gradientTransform="matrix(0.3091956,0,0,0.3766935,0.4761461,0.1071779)" />
    <linearGradient
       id="linearGradient4267">
      <stop
         id="stop4269"
         style="stop-color:#c4c4c4;stop-opacity:1"
         offset="0" />
      <stop
         id="stop4271"
         style="stop-color:#c4c4c4;stop-opacity:0"
         offset="1" />
    </linearGradient>
    <linearGradient
       x1="35.516502"
       y1="4.8577352"
       x2="34.102982"
       y2="6.5436172"
       id="linearGradient3458"
       xlink:href="#linearGradient4267"
       gradientUnits="userSpaceOnUse"
       gradientTransform="matrix(0.3428665,0,0,0.3408721,-0.6875871,0.3295305)" />
  </defs>
  <g
     id="layer1">
    <path
       d="M 1.5,0.4999664 C 4.0206756,0.4999664 7.4205035,0.4999664 9.9411815,0.4999664 C 10.383361,0.6617599 12.879694,2.6328115 13.500013,3.9090875 C 13.500013,7.8153335 13.500039,11.593785 13.500039,15.500034 C 9.8333455,15.500034 5.1666926,15.500034 1.5,15.500034 C 1.5,10.500011 1.5,5.4999875 1.5,0.4999664 z"
       id="path4160"
       style="fill:url(#radialGradient3471);fill-opacity:1;fill-rule:nonzero;stroke:url(#linearGradient3474);stroke-width:0.99992192;stroke-linecap:butt;stroke-linejoin:round;marker:none;marker-start:none;marker-mid:none;marker-end:none;stroke-miterlimit:4;stroke-dasharray:none;stroke-dashoffset:0;stroke-opacity:1;visibility:visible;display:inline;overflow:visible;enable-background:accumulate" />
    <path
       d="M 12.5,4.2150736 C 12.5,7.6004717 12.5,11.114602 12.5,14.500001 C 9.500001,14.500001 5.5000009,14.500001 2.5,14.500001 C 2.5,10.166664 2.5,5.8333326 2.5,1.5 C 4.5623569,1.5 7.6738997,1.5 9.7362577,1.5"
       id="path2435"
       style="opacity:0.4;fill:none;fill-opacity:1;stroke:url(#linearGradient3468);stroke-width:0.99999994;stroke-linecap:butt;stroke-linejoin:miter;stroke-miterlimit:4;stroke-dasharray:none;stroke-dashoffset:0;stroke-opacity:1;display:inline" />
    <path
       d="M 2.5238093,0.99999996 C 2.2344802,0.99999996 2,1.4723225 2,2.0551278 L 2,9.77264 C 2.0006633,9.8375644 2.0147975,9.898961 2.0389717,9.9419263 C 2.0631449,9.9848916 2.0951471,10.005497 2.1272107,9.9987385 L 12.902721,6.5620336 C 12.95815,6.5444258 12.999225,6.4489566 13,6.3359346 L 13,4.2589134 C 13,4.2589134 9.494977,0.99999996 9.494977,0.99999996 L 2.5238093,0.99999996 z"
       id="path3879"
       style="opacity:0.2;fill:url(#linearGradient3461);fill-opacity:1;fill-rule:evenodd;stroke:none;stroke-width:1.00213289;stroke-linecap:round;stroke-linejoin:round;stroke-miterlimit:4;stroke-dasharray:none;stroke-dashoffset:0;stroke-opacity:1" />
    <path
       d="M 5.8612648,5.3893809 C 4.5753267,7.0369254 3.2899693,8.6865613 2.0040312,10.334106 C 2.0040312,12.011659 2.0040312,13.691364 2.0040312,15.368917 C 5.0585509,15.368917 8.1130483,15.368917 11.167567,15.368917 C 12.012661,14.28618 12.142922,14.121131 13.012784,13.00666 C 13.012784,11.485354 13.012784,9.9698933 13.012784,8.4422981 C 10.488732,7.3643591 7.5003344,6.0893729 5.8612648,5.3893809 z"
       id="path3743"
       style="opacity:0.1;fill:url(#linearGradient3516);fill-opacity:1;fill-rule:nonzero;stroke:none;stroke-width:0.91176528;stroke-linecap:butt;stroke-linejoin:miter;marker:none;marker-start:none;marker-mid:none;marker-end:none;stroke-miterlimit:4;stroke-dasharray:none;stroke-dashoffset:0;stroke-opacity:1;visibility:visible;display:inline;overflow:visible;enable-background:accumulate" />
    <path
       d="M 5.8541667,5 C 4.5692511,6.650923 3.2849157,8.3039418 2,9.9548645 C 2,11.635859 2,13.319008 2,15 C 5.0520911,15 8.1041599,15 11.15625,15 C 12.000672,13.915043 12.13083,13.749655 13,12.632899 C 13,11.108474 13,9.5899054 13,8.0591777 C 10.477955,6.9790282 7.4919331,5.7014275 5.8541667,5 z"
       id="path3697"
       style="opacity:0.4;fill:url(#linearGradient3513);fill-opacity:1;fill-rule:nonzero;stroke:none;stroke-width:0.91176528;stroke-linecap:butt;stroke-linejoin:miter;marker:none;marker-start:none;marker-mid:none;marker-end:none;stroke-miterlimit:4;stroke-dasharray:none;stroke-dashoffset:0;stroke-opacity:1;visibility:visible;display:inline;overflow:visible;enable-background:accumulate" />
    <path
       d="M 5.9810317,6.7615098 L 12.009796,9.4275864 L 5.9810317,6.7615098 z M 5.338517,7.6139199 L 12.348708,10.714009 L 5.338517,7.6139199 z M 4.6858845,8.4797538 L 6.9291453,9.4717822 L 4.6858845,8.4797538 z M 4.0433692,9.3321636 L 11.053561,12.432253 L 4.0433692,9.3321636 z M 3.3907365,10.197998 L 9.6999089,12.988078 L 3.3907365,10.197998 z M 2.743163,11.05712 L 8.4915198,13.599192 L 2.743163,11.05712 z M 2.1006486,11.909529 L 8.970636,14.947617 L 2.1006486,11.909529 z"
       id="path3475"
       style="opacity:0.1;fill:none;fill-rule:evenodd;stroke:url(#linearGradient3510);stroke-width:1px;stroke-linecap:butt;stroke-linejoin:miter;stroke-opacity:1" />
    <path
       d="M 10.645416,13 C 10.027221,13 9.4090271,13 8.7908323,13 C 8.4501418,11.556606 8.0838647,10.119169 7.7607964,8.6716727 C 7.6576392,8.2157975 7.5490246,7.4357066 7.4884718,7.1546392 C 7.2911817,8.7166266 6.8621424,10.229447 6.5107531,11.758079 C 6.4119804,12.172053 6.3132084,12.586026 6.2144363,13 C 5.594485,13 4.9745342,13 4.354584,13 C 3.736389,10.335851 3.118194,7.6717027 2.5,5.0075546 C 3.035651,5.0075546 3.571302,5.0075546 4.106954,5.0075546 C 4.536504,7.2028743 5.0221153,9.3872875 5.3609057,11.600502 C 5.504561,10.55532 5.6854086,9.5156138 5.950204,8.4956842 C 6.2279547,7.3329746 6.5057056,6.1702646 6.7834563,5.0075546 C 7.2611517,5.0075546 7.7388475,5.0075546 8.2165433,5.0075546 C 8.5812398,6.5495875 8.9598812,8.0883507 9.315723,9.6324597 C 9.4423702,10.285249 9.5429528,10.943107 9.6443624,11.600502 C 9.963951,9.4242919 10.451079,7.2802063 10.869851,5.1232446 C 10.861042,4.9136605 11.117919,5.0429978 11.245621,5.0075546 C 11.663747,5.0075546 12.081874,5.0075546 12.5,5.0075546 C 11.881805,7.6717027 11.263611,10.335851 10.645416,13 z"
       id="path3494"
       style="font-size:30.51395607px;font-style:normal;font-variant:normal;font-weight:bold;font-stretch:normal;opacity:0.4;fill:#ffffff;fill-opacity:1;stroke:none;stroke-width:1px;stroke-linecap:butt;stroke-linejoin:miter;stroke-opacity:1;font-family:Droid Sans;-inkscape-font-specification:Droid Sans Bold" />
    <path
       d="M 10.645416,12 C 10.027221,12 9.4090271,12 8.7908323,12 C 8.4501418,10.556606 8.0838647,9.1191688 7.7607964,7.6716727 C 7.6576392,7.2157975 7.5490246,6.4357066 7.4884718,6.1546392 C 7.2911817,7.7166266 6.8621424,9.229447 6.5107531,10.758079 C 6.4119804,11.172053 6.3132084,11.586026 6.2144363,12 C 5.594485,12 4.9745342,12 4.354584,12 C 3.736389,9.3358512 3.118194,6.6717027 2.5,4.0075546 C 3.035651,4.0075546 3.571302,4.0075546 4.106954,4.0075546 C 4.536504,6.2028743 5.0221153,8.3872875 5.3609057,10.600502 C 5.504561,9.5553197 5.6854086,8.5156138 5.950204,7.4956842 C 6.2279547,6.3329746 6.5057056,5.1702646 6.7834563,4.0075546 C 7.2611517,4.0075546 7.7388475,4.0075546 8.2165433,4.0075546 C 8.5812398,5.5495875 8.9598812,7.0883507 9.315723,8.6324597 C 9.4423702,9.2852492 9.5429528,9.9431068 9.6443624,10.600502 C 9.963951,8.4242919 10.451079,6.2802063 10.869851,4.1232446 C 10.861042,3.9136605 11.117919,4.0429978 11.245621,4.0075546 C 11.663747,4.0075546 12.081874,4.0075546 12.5,4.0075546 C 11.881805,6.6717027 11.263611,9.3358512 10.645416,12 z"
       id="text2612"
       style="font-size:30.51395607px;font-style:normal;font-variant:normal;font-weight:bold;font-stretch:normal;fill:url(#linearGradient3477);fill-opacity:1;stroke:none;stroke-width:1px;stroke-linecap:butt;stroke-linejoin:miter;stroke-opacity:1;font-family:Droid Sans;-inkscape-font-specification:Droid Sans Bold" />
    <path
       d="M 9.2941205,0.8409023 C 10.142028,3.6448055 9,5.0341186 9,5.0341186 C 9,5.0341186 10.892807,3.7827125 13.171354,4.9318145 C 15.11421,5.9116229 13.207429,3.9237905 13.129895,3.8027685 C 12.586944,2.9552643 10.707454,1.1696619 10.025256,0.8725867 C 9.9696235,0.8483603 9.5814385,0.8409023 9.2941205,0.8409023 z"
       id="path3330"
       style="opacity:0.3;fill:#000000;fill-opacity:1;fill-rule:evenodd;stroke:none;stroke-width:1px;stroke-linecap:butt;stroke-linejoin:miter;stroke-opacity:1;display:inline" />
    <path
       d="M 9.2941205,0.8409023 C 10.281641,0.8409023 10,4.0219212 10,4.0219212 C 10,4.0219212 12.272472,3.5211898 13.171354,4.9318145 C 13.334236,5.1874273 13.207429,3.9237905 13.129895,3.8027685 C 12.586944,2.9552643 10.707454,1.1696619 10.025256,0.8725867 C 9.9696235,0.8483603 9.5814385,0.8409023 9.2941205,0.8409023 z"
       id="path4474"
       style="fill:url(#linearGradient3464);fill-opacity:1;fill-rule:evenodd;stroke:none;stroke-width:1px;stroke-linecap:butt;stroke-linejoin:miter;stroke-opacity:1;display:inline" />
    <path
       d="M 9.7907032,0.49996655 C 10.273093,0.66176251 12.864657,2.504091 13.541387,3.7803849 C 13.541387,7.6866881 13.541387,4.0617877 13.541387,7.968091 C -0.32613212,13.329645 1.4602649,0.49996655 9.7907032,0.49996655 z"
       id="path3883"
       style="fill:none;stroke:url(#linearGradient3458);stroke-width:0.99992192;stroke-linecap:butt;stroke-linejoin:round;stroke-miterlimit:4;stroke-dasharray:none;stroke-dashoffset:0;stroke-opacity:1;display:inline" />
  </g>
</svg>

<?xml version="1.0" encoding="UTF-8" standalone="no"?>
<!-- Created with Inkscape (http://www.inkscape.org/) -->
<svg id="svg3518" xmlns="http://www.w3.org/2000/svg" height="16" width="16" version="1.0" xmlns:xlink="http://www.w3.org/1999/xlink">
 <defs id="defs3520">
  <linearGradient id="linearGradient3474" y2="2.9062" gradientUnits="userSpaceOnUse" x2="-51.786" gradientTransform="matrix(.27686 0 0 .30502 19.641 -.68561)" y1="53.624" x1="-51.786">
   <stop id="stop2510" style="stop-color:#2e4a5a" offset="0"/>
   <stop id="stop2512" style="stop-color:#6e8796" offset="1"/>
  </linearGradient>
  <radialGradient id="radialGradient3471" gradientUnits="userSpaceOnUse" cy="11.49" cx="14.239" gradientTransform="matrix(0 1.0835 -1.8167 0 24.709 -13.135)" r="18">
   <stop id="stop8022" style="stop-color:#85c2cf" offset="0"/>
   <stop id="stop8024" style="stop-color:#74a4be" offset=".26238"/>
   <stop id="stop8026" style="stop-color:#5177a0" offset=".70495"/>
   <stop id="stop8028" style="stop-color:#2c5889" offset="1"/>
  </radialGradient>
  <linearGradient id="linearGradient3468" y2="46.017" gradientUnits="userSpaceOnUse" x2="24" gradientTransform="matrix(.27273 0 0 .30232 1.4546 .74420)" y1="2" x1="24">
   <stop id="stop3213" style="stop-color:#fff" offset="0"/>
   <stop id="stop3215" style="stop-color:#fff;stop-opacity:0" offset="1"/>
  </linearGradient>
  <linearGradient id="linearGradient3461" y2="24.628" gradientUnits="userSpaceOnUse" x2="20.055" gradientTransform="matrix(.23946 0 0 .48234 1.7531 -1.879)" y1="15.298" x1="16.626">
   <stop id="stop2687" style="stop-color:#fff" offset="0"/>
   <stop id="stop2689" style="stop-color:#fff;stop-opacity:0" offset="1"/>
  </linearGradient>
  <linearGradient id="linearGradient3516" y2="12" spreadMethod="reflect" gradientUnits="userSpaceOnUse" x2="91" gradientTransform="matrix(.38439 0 0 .29589 -20.854 2.5013)" y1="28" x1="75.854">
   <stop id="stop4002" offset="0"/>
   <stop id="stop4004" style="stop-opacity:0" offset="1"/>
  </linearGradient>
  <linearGradient id="linearGradient3513" y2="12" spreadMethod="reflect" gradientUnits="userSpaceOnUse" x2="91" gradientTransform="matrix(.38408 0 0 .29650 -20.798 2.0702)" y1="28" x1="75.854">
   <stop id="stop5295" style="stop-color:#fff" offset="0"/>
   <stop id="stop5297" style="stop-color:#fff;stop-opacity:0" offset="1"/>
  </linearGradient>
  <linearGradient id="linearGradient3510" y2="16.135" spreadMethod="reflect" gradientUnits="userSpaceOnUse" x2="44.25" gradientTransform="matrix(.32379 0 0 .32192 -.26248 .88249)" y1="30.455" x1="26.189">
   <stop id="stop3761" offset="0"/>
   <stop id="stop3763" style="stop-opacity:0" offset="1"/>
  </linearGradient>
  <linearGradient id="linearGradient3477" y2=".19081" gradientUnits="userSpaceOnUse" x2="24.239" gradientTransform="matrix(.35362 0 0 .36691 -1.0714 -.71525)" y1="44.11" x1="24.239">
   <stop id="stop3686" style="stop-color:#294351" offset="0"/>
   <stop id="stop3688" style="stop-color:#637a87" offset="1"/>
  </linearGradient>
  <linearGradient id="linearGradient3464" y2="5.4565" gradientUnits="userSpaceOnUse" x2="36.358" gradientTransform="matrix(.30920 0 0 .37669 .47615 .10718)" y1="8.059" x1="32.892">
   <stop id="stop8591" style="stop-color:#fefefe" offset="0"/>
   <stop id="stop8593" style="stop-color:#cbcbcb" offset="1"/>
  </linearGradient>
  <linearGradient id="linearGradient3458" y2="6.5436" gradientUnits="userSpaceOnUse" x2="34.103" gradientTransform="matrix(.34287 0 0 .34087 -.68759 .32953)" y1="4.8577" x1="35.517">
   <stop id="stop4269" style="stop-color:#c4c4c4" offset="0"/>
   <stop id="stop4271" style="stop-color:#c4c4c4;stop-opacity:0" offset="1"/>
  </linearGradient>
 </defs>
 <g id="layer1">
  <path id="path4160" style="stroke-linejoin:round;stroke-width:.99992;stroke:url(#linearGradient3474);fill:url(#radialGradient3471)" d="m1.5 0.49997h8.4412c0.4418 0.16179 2.9388 2.1328 3.5588 3.4091v11.591h-12v-15z"/>
  <path id="path2435" style="opacity:.4;stroke:url(#linearGradient3468);fill:none" d="m12.5 4.2151v10.285h-10v-13h7.2363"/>
  <path id="path3879" style="opacity:.2;fill:url(#linearGradient3461);fill-rule:evenodd" d="m2.5238 1c-0.2893 0-0.5238 0.4723-0.5238 1.0551v7.7175c0.0007 0.065 0.0148 0.1264 0.039 0.1693 0.0241 0.043 0.0561 0.0631 0.0882 0.0568l10.776-3.4367c0.055-0.0176 0.096-0.113 0.097-0.2261v-2.077l-3.505-3.2589h-6.9712z"/>
  <path id="path3743" style="opacity:.1;fill:url(#linearGradient3516)" d="m5.8613 5.3894c-1.286 1.6475-2.5713 3.2972-3.8573 4.9446v5.035h9.164c0.845-1.083 0.975-1.248 1.845-2.362v-4.5647c-2.524-1.0779-5.5127-2.3529-7.1517-3.0529z"/>
  <path id="path3697" style="opacity:.4;fill:url(#linearGradient3513)" d="m5.8542 5c-1.2849 1.6509-2.5693 3.3039-3.8542 4.9549v5.0451h9.156c0.845-1.085 0.975-1.25 1.844-2.367v-4.5738c-2.522-1.0802-5.5081-2.3578-7.1458-3.0592z"/>
  <path id="path3475" style="opacity:.1;stroke:url(#linearGradient3510);stroke-width:1px;fill:none" d="m5.981 6.7615l6.029 2.6661-6.029-2.6661zm-0.6425 0.8524l7.0105 3.1001-7.0105-3.1001zm-0.6526 0.8659l2.2432 0.992-2.2432-0.992zm-0.6425 0.8524l7.0106 3.0998-7.0106-3.0998zm-0.6527 0.8658l6.3092 2.79-6.3092-2.79zm-0.6475 0.859l5.7483 2.542-5.7483-2.542zm-0.6426 0.853l6.87 3.038-6.87-3.038z"/>
  <path id="path3494" style="opacity:.4;fill:#fff" d="m10.645 13h-1.8542c-0.3407-1.443-0.7069-2.881-1.03-4.3283-0.1032-0.4559-0.2118-1.236-0.2723-1.5171-0.1973 1.562-0.6264 3.0744-0.9777 4.6034l-0.2964 1.242h-1.8598c-0.6182-2.664-1.2364-5.3283-1.8546-7.9924h1.607c0.4295 2.1953 0.9151 4.3797 1.2539 6.5934 0.1437-1.046 0.3245-2.0854 0.5893-3.1053 0.2778-1.1627 0.5555-2.3254 0.8333-3.4881h1.433c0.3647 1.542 0.7434 3.0808 1.0992 4.6249 0.1267 0.6525 0.2273 1.3105 0.3287 1.9685 0.3196-2.1767 0.8066-4.3208 1.2256-6.4778-0.009-0.2095 0.248-0.0802 0.376-0.1156h1.254c-0.618 2.6641-1.236 5.3284-1.855 7.9924z"/>
  <path id="text2612" style="fill:url(#linearGradient3477)" d="m10.645 12h-1.8542c-0.3407-1.443-0.7069-2.8808-1.03-4.3283-0.1032-0.4559-0.2118-1.236-0.2723-1.5171-0.1973 1.562-0.6264 3.0748-0.9777 4.6034l-0.2964 1.242h-1.8598l-1.8546-7.9924h1.607c0.4295 2.1953 0.9151 4.3797 1.2539 6.5934 0.1437-1.0457 0.3245-2.0854 0.5893-3.1053 0.2778-1.1627 0.5555-2.3254 0.8333-3.4881h1.433c0.3647 1.542 0.7434 3.0808 1.0992 4.6249 0.1267 0.6527 0.2273 1.3106 0.3287 1.9685 0.3196-2.1767 0.8066-4.3208 1.2256-6.4778-0.009-0.2095 0.248-0.0802 0.376-0.1156h1.254c-0.618 2.6641-1.236 5.3283-1.855 7.9924z"/>
  <path id="path3330" style="opacity:.3;fill-rule:evenodd" d="m9.2941 0.8409c0.8479 2.8039-0.2941 4.1932-0.2941 4.1932s1.893-1.2514 4.171-0.1023c1.943 0.9798 0.036-1.008-0.041-1.129-0.543-0.8475-2.423-2.6331-3.105-2.9302-0.0554-0.02424-0.4436-0.0317-0.7309-0.0317z"/>
  <path id="path4474" style="fill:url(#linearGradient3464);fill-rule:evenodd" d="m9.2941 0.8409c0.9879 0 0.7059 3.181 0.7059 3.181s2.272-0.5007 3.171 0.9099c0.163 0.2556 0.036-1.008-0.041-1.129-0.543-0.8475-2.423-2.6331-3.105-2.9302-0.0554-0.02424-0.4436-0.0317-0.7309-0.0317z"/>
  <path id="path3883" style="stroke-linejoin:round;stroke:url(#linearGradient3458);stroke-width:.99992;fill:none" d="m9.7907 0.49997c0.4823 0.16179 3.0743 2.0041 3.7503 3.2804v4.1877c-13.867 5.3619-12.081-7.4681-3.7503-7.4681z"/>
 </g>
</svg>
